X:22
T: AEIE BUBAEIE DIE BAEBLE SIN GUET
N: K0089
O: Europa, Mitteleuropa, Deutschland; Frankreich, Elsass
R: Kinder -, Wiegen - Lied
M: 3/8
L: 1/16
K: G
 | d2dcBA | G2GABc | d2d2e2 | d6 |
c2c2A2 | B3AG2 | A2A2F2 | G4z2 |
d2d2B2 | c2c2A2 | B2G2G2 | A6 |
d2d2B2 | c4A2 | B2B2G2 | A6 |
d2dcBA | G2GABc | d2d2e2 | d6 |
c2c2A2 | B3AG2 | A2A2F2 | G4z2

@@@ Tune index: 7359
